X: 37300
T: Skräddarkadrilj
R: barndance
M: 4/4
K: Gmajor
g2 d2 dedc|B2 G2 G2 g2|eceg fdfa|gaba gfef|
g2 d2 dedc|B2 G2 G2 g2|eceg fdfa|g2 .gg .gz:|

